!!!!SEGMENT: Ser2004-Impetum_inimicorum.krn
!!!id: Ser2004
!!!AGN: Motet
!!!SCT: Sherr (1990)
!!!voices: 4
!!!COM: Claudin de Sermisy
!!!OTL: Impetum inimicorum
**kern	**kern	**kern	**kern
*part4	*part3	*part2	*part1
*staff4	*staff3	*staff2	*staff1
*I"Bassus	*I"Tenor	*I"Altus	*I"Superius
*I'B	*I'T	*I'A	*I'S
*clefF4	*clefGv2	*clefG2	*clefG2
*k[b-]	*k[b-]	*k[b-]	*k[b-]
*F:	*F:	*F:	*F:
*M2/1	*M2/1	*M2/1	*M2/1
*met(C|)	*met(C|)	*met(C|)	*met(C|)
!!section: Prima pars: Impetum inimicorum
!!!OMD: Prima pars: Impetum inimicorum
=1	=1	=1	=1
0d	0r	0r	0r
=2	=2	=2	=2
1e	0r	0r	0r
[1d	.	.	.
=3	=3	=3	=3
1d]	0d	0r	0r
[1G	.	.	.
=4	=4	=4	=4
2G]	1e	0r	0r
2A	.	.	.
2B-y	1d	.	.
[2G	.	.	.
=5	=5	=5	=5
2G]	1.B-y	0r	0dd
4F	.	.	.
4E	.	.	.
1D	.	.	.
.	2B-y	.	.
=6	=6	=6	=6
1C	1c	0r	1ee
[1G	1d	.	1dd
=7	=7	=7	=7
1G]	0G	0d	1.b-y
1r	.	.	.
.	.	.	2b-y
=8	=8	=8	=8
0r	2r	1e	1cc
.	2c	.	.
.	2B-y	[1d	1dd
.	2G	.	.
=9	=9	=9	=9
0G	2.B-y	1d]	2g
.	.	.	2.b-y
.	4c	.	.
.	4d	1B-y	.
.	4e-i	.	4a
.	[2d	.	[2g
=10	=10	=10	=10
1A	4d]	1c	2g]
.	4c	.	.
.	1c	.	2f#i
1G	.	1d	[1g
.	2Bni	.	.
=11	=11	=11	=11
1.C	0c	2.e	0g_
.	.	4d	.
.	.	4e	.
.	.	4d	.
2C	.	4c	.
.	.	4B-y	.
=12	=12	=12	=12
1C	0e	0c	1g]
1C	.	.	1g
=13	=13	=13	=13
1G	0d	2r	2b-y
.	.	2d	2b-y
2r	.	2f	2a
2D	.	2f	2f
=14	=14	=14	=14
2F	2r	2c	1a
2F	2A	2d	.
2C	2c	1e	1g
2C	2c	.	.
=15	=15	=15	=15
0G	2B-y	1d	2r
.	2G	.	2g
.	[1d	2r	2b-y
.	.	2d	2b-y
=16	=16	=16	=16
2r	1d]	2f	2a
2D	.	2f	2f
2F	2r	2c	1a
2F	2A	2d	.
=17	=17	=17	=17
2C	2c	1e	2.g
2C	2c	.	.
.	.	.	4a
1G	2B-y	2.d	4b-y
.	.	.	4cc
.	2G	.	[2dd
.	.	4e	.
=18	=18	=18	=18
2.D	1d	1.f	2dd]
.	.	.	4cc
4E	.	.	4b-y
2F	2c	.	2a
2G	2B-y	2d	2b-y
=19	=19	=19	=19
2C	4c	2e	4a
.	4B-y	.	4g
2E	4A	2c	1g
.	4G	.	.
1D	1A	1d	.
.	.	.	2f#i
=20	=20	=20	=20
[0G	0G	1B-y	[0g
.	.	2r	.
.	.	[2d	.
=21	=21	=21	=21
1G]	0r	2d]	1g]
.	.	2d	.
1r	.	2c	2r
.	.	2B-y	[2g
=22	=22	=22	=22
0r	0r	1e-i	2g]
.	.	.	2g
.	.	[1d	2f
.	.	.	2f
=23	=23	=23	=23
0r	0r	1d]	1b-y
.	.	2r	1a
.	.	[2d	.
=24	=24	=24	=24
0r	0r	2d]	2r
.	.	2d	1a
.	.	1d	.
.	.	.	2a
=25	=25	=25	=25
0r	0r	2r	1a
.	.	2A	.
.	.	2B-y	1g
.	.	2c	.
=26	=26	=26	=26
2r	0r	2d	1f
1A	.	2.c	.
.	.	.	2.e
.	.	4B-y	.
2A	.	4c	.
.	.	4d	4f
=27	=27	=27	=27
2G	0r	2e	2g
2F	.	1f	2a
1B-y	.	.	2d
.	.	4e	[2dd
.	.	4d	.
=28	=28	=28	=28
1A	2r	1.e	2dd]
.	1A	.	4cc
.	.	.	4b-y
1r	.	.	2.cc
.	2A	2f	.
.	.	.	4dd
=29	=29	=29	=29
0r	2G	2g	2ee
.	2F	2a	2.ff
.	1B-y	1d	.
.	.	.	4ee
.	.	.	[2dd
=30	=30	=30	=30
0r	1A	1e	2dd]
.	.	.	2cc#i
.	1r	1d	[1dd
=31	=31	=31	=31
0r	0r	2r	1dd]
.	.	2d	.
.	.	[1f	2r
.	.	.	2a
=32	=32	=32	=32
0r	0r	2f]	1.cc
.	.	4e	.
.	.	4d	.
.	.	2c	.
.	.	2d	4b-y
.	.	.	4a
=33	=33	=33	=33
0r	0r	1e-i	2.g
.	.	.	4a
.	.	2.d	2b-y
.	.	.	[2a
.	.	4B-y	.
=34	=34	=34	=34
2r	0r	2c	4a]
.	.	.	4g
1D	.	2d	4f
.	.	.	4e
.	.	2.A	2.f
2D	.	.	.
.	.	4B-y	4g
=35	=35	=35	=35
2C	0r	2c	2a
2BB-y	.	2d	2.b-y
1E-i	.	1G	.
.	.	.	4a
.	.	.	[2g
=36	=36	=36	=36
0D	2r	0A	2g]
.	1d	.	4f#i
.	.	.	4e
.	.	.	1f#i
.	2d	.	.
=37	=37	=37	=37
1r	2c	0r	[0g
.	2B-y	.	.
2r	1e-i	.	.
[2G	.	.	.
=38	=38	=38	=38
2G]	2d	0r	0g]
2G	1d	.	.
1G	.	.	.
.	2d	.	.
=39	=39	=39	=39
1.B-y	1d	0r	0r
.	[1f	.	.
2A	.	.	.
=40	=40	=40	=40
2F	2f]	0r	0r
2G	2e	.	.
2A	2c	.	.
2B-y	2d	.	.
=41	=41	=41	=41
2A	1e	0r	0r
1G	.	.	.
.	2d	.	.
2F	2f	.	.
=42	=42	=42	=42
4G	2e	0r	0r
4F	.	.	.
4E	1d	.	.
4D	.	.	.
1E	.	.	.
.	2c#i	.	.
=43	=43	=43	=43
1D	1d	1r	2r
.	.	.	2a
1r	2.B-y	2r	[1dd
.	.	2d	.
.	8AL	.	.
.	8GJ	.	.
=44	=44	=44	=44
0r	0G	1g	2dd]
.	.	.	2dd
.	.	2g	2dd
.	.	2g	2dd
=45	=45	=45	=45
0r	0r	2g	1ee
.	.	1a	.
.	.	.	2ff
.	.	[2b-y	[2dd
=46	=46	=46	=46
1r	1G	4b-]	2dd]
.	.	4a	.
.	.	1g	4cc
.	.	.	4b-y
1D	[1d	.	1a
.	.	2f#i	.
=47	=47	=47	=47
1G	2d]	0g	0b-y
.	2d	.	.
2G	2d	.	.
2G	2d	.	.
=48	=48	=48	=48
2G	1e	0r	0r
1A	.	.	.
.	2f	.	.
[2B-y	[2d	.	.
=49	=49	=49	=49
4B-]	4d]	1r	0r
4A	4c	.	.
1G	2B-y	.	.
.	4A	2r	.
.	4G	.	.
2F	[2c	2f	.
=50	=50	=50	=50
1G	2c]	2e	2r
.	2B-y	2d	2dd
1r	2c	2e	2cc
.	2d	2f	2a
=51	=51	=51	=51
2r	1G	1.g	1.b-y
2B-y	.	.	.
2G	1r	.	.
2A	.	4f	2cc
.	.	4e	.
=52	=52	=52	=52
2B-y	0r	2d	2.dd
2c	.	1g	.
.	.	.	8ccL
.	.	.	8b-yJ
[1d	.	.	[1a
.	.	4f	.
.	.	4e	.
=53	=53	=53	=53
1d]	0r	1f	1a]
1r	.	1r	1r
=54	=54	=54	=54
0G	0d	0g	0b-y
=55	=55	=55	=55
1G	1d	1g	1b-y
1C	1e	1g	1cc
=56	=56	=56	=56
1.F	1.c	1.f	1.a
2F	2c	2f	2a
=57	=57	=57	=57
1G	1B-y	1.d	1b-y
[1E-X	4B-y	.	[1g
.	4A	.	.
.	4G	4c	.
.	4F	4B-y	.
=58	=58	=58	=58
1E-]	1G	1c	1g]
[1D	[1A	1d	[1f
=59	=59	=59	=59
1D]	1A]	1.d	0f]
1r	[1d	.	.
.	.	2e	.
=60	=60	=60	=60
1.D	2d]	1.f	1r
.	2e	.	.
.	2.f	.	[1a
2E	.	2g	.
.	8eL	.	.
.	8dJ	.	.
=61	=61	=61	=61
1F	2c	1a	2a]
.	2d	.	2b-y
4C	1e	1g	1cc
4D	.	.	.
4E	.	.	.
4F	.	.	.
=62	=62	=62	=62
2.G	1.d	2.g	2.b-y
4A	.	4f	4a
2B-y	.	4d	4f
.	.	4e	4g
2F	2c	2f	[2a
=63	=63	=63	=63
2G	2B-y	2d	2a]
2E	2G	2c	1g
1D	1A	1d	.
.	.	.	2f#i
=64	=64	=64	=64
[0G	0G	0B-y	1g
.	.	.	2r
.	.	.	2g
=65	=65	=65	=65
0G]	0r	2r	4g
.	.	.	4a
.	.	2G	4b-y
.	.	.	4cc
.	.	4G	4dd
.	.	4A	4cc
.	.	4B-y	4dd
.	.	4c	4ee
=66	=66	=66	=66
0r	0r	4d	2.ff
.	.	4e	.
.	.	1f	.
.	.	.	8eeL
.	.	.	8ddJ
.	.	.	2cc
.	.	4e	2dd
.	.	4d	.
=67	=67	=67	=67
0r	1r	2c	2ee
.	.	2B-y	2.dd
.	2r	4G	.
.	.	4A	4cc
.	2G	4B-y	4b-y
.	.	4c	4a
=68	=68	=68	=68
1r	4G	4d	1b-y
.	4A	4c	.
.	4B-y	4d	.
.	4c	4e	.
2r	4d	4f	1a
.	4e	4g	.
2D	[2f	[2a	.
=69	=69	=69	=69
4D	2f]	2a]	0r
4E	.	.	.
4F	4e	4g	.
4G	4d	4f	.
4A	2c	1e	.
4B-y	.	.	.
2c	2A	.	.
=70	=70	=70	=70
2G	2B-y	1d	1r
2.B-y	2.d	.	.
.	.	2r	2r
4A	4c	.	.
4G	4B-y	[2d	[2b-y
4F	4A	.	.
=71	=71	=71	=71
1G	1B-y	2d]	2b-]
.	.	2d	2b-y
1F	1c	2.f	2.a
.	.	4g	4b-y
=72	=72	=72	=72
0r	2r	2a	2cc
.	1G	1b-y	1dd
.	2G	4a	4cc
.	.	4g	4b-y
=73	=73	=73	=73
2r	2.d	4f	1.a
.	.	4e	.
1D	.	4d	.
.	4e	4c	.
.	2.f	1d	.
2D	.	.	2b-y
.	8eL	.	.
.	8dJ	.	.
=74	=74	=74	=74
2.A	2.c	1e	0cc
4B-y	4d	.	.
2.c	1e	1r	.
4B-y	.	.	.
=75	=75	=75	=75
2G	2.d	0r	1b-y
1B-y	.	.	.
.	4c	.	.
.	4d	.	1r
.	4e	.	.
2A	[2f	.	.
=76	=76	=76	=76
2F	4f]	0r	2r
.	4e	.	.
2G	1d	.	2dd
1E	.	.	2ee
.	2c#i	.	2ee
=77	=77	=77	=77
1D	1d	2r	1ff
.	.	2f	.
1r	2c	2g	2ee
.	2B-y	2g	2dd
=78	=78	=78	=78
1r	1A	1a	4cc
.	.	.	4dd
.	.	.	4ee
.	.	.	4ff
2r	1r	2.g	2ee
2G	.	.	[2dd
.	.	4f	.
=79	=79	=79	=79
1A	1r	1e	2dd]
.	.	.	2cc#i
2B-y	2r	1d	1dd
2B-y	2d	.	.
=80	=80	=80	=80
2A	1e	0r	2cc
2G	.	.	2b-y
4F	2f	.	1a
4G	.	.	.
4A	2f	.	.
4B-y	.	.	.
=81	=81	=81	=81
2c	2e	0r	0r
1B-y	2d	.	.
.	1c	.	.
2A	.	.	.
=82	=82	=82	=82
2B-y	2r	2r	2r
1G	1d	1g	1b-y
2G	2d	2g	2b-y
=83	=83	=83	=83
2G	2d	2g	2b-y
2G	2e	2g	2b-y
2A	2c	2e	2.cc
2F	2f	2a	.
.	.	.	4a
=84	=84	=84	=84
2G	2e	2g	2b-y
2B-y	1d	2d	2g
1A	.	1e	[1a
.	2c#i	.	.
=85	=85	=85	=85
0D	1d	0d	0a_
.	2r	.	.
.	2A	.	.
=86	=86	=86	=86
2r	1.d	0r	1a]
2D	.	.	.
1G	.	.	1r
.	2B-y	.	.
=87	=87	=87	=87
2E	1c	1r	2r
1F	.	.	2a
.	1A	2r	[1dd
2D	.	2d	.
=88	=88	=88	=88
0r	1r	1g	2dd]
.	.	.	2b-y
.	1A	2e	1cc
.	.	[2f	.
=89	=89	=89	=89
2r	2.d	2f]	1a
2D	.	2d	.
.	4c	.	.
2G	2B-y	2e	1r
2F	2A	2f	.
=90	=90	=90	=90
1G	2.B-y	1d	2r
.	.	.	2g
.	4c	.	.
1D	1A	2r	[1dd
.	.	2d	.
=91	=91	=91	=91
0r	0G	1g	2dd]
.	.	.	2dd
.	.	2g	2dd
.	.	2g	2dd
=92	=92	=92	=92
0r	0r	2g	1ee
.	.	1a	.
.	.	.	2ff
.	.	[2b-y	[2dd
=93	=93	=93	=93
1r	1G	4b-]	2dd]
.	.	4a	.
.	.	1g	4cc
.	.	.	4b-y
1D	[1d	.	1a
.	.	2f#i	.
=94	=94	=94	=94
1G	2d]	0g	0b-y
.	2d	.	.
2G	2d	.	.
2G	2d	.	.
=95	=95	=95	=95
2G	1e	0r	0r
1A	.	.	.
.	2f	.	.
[2B-y	[2d	.	.
=96	=96	=96	=96
4B-]	4d]	1r	0r
4A	4c	.	.
1G	2B-y	.	.
.	4A	2r	.
.	4G	.	.
2F	[2c	2f	.
=97	=97	=97	=97
1G	2c]	2e	2r
.	2B-y	2d	2dd
1r	2c	2e	2cc
.	2d	2f	2a
=98	=98	=98	=98
2r	1G	1.g	1.b-y
2B-y	.	.	.
2G	1r	.	.
2A	.	4f	2cc
.	.	4e	.
=99	=99	=99	=99
2B-y	0r	2d	2.dd
2c	.	1g	.
.	.	.	8ccL
.	.	.	8b-yJ
[1d	.	.	[1a
.	.	4f	.
.	.	4e	.
=100	=100	=100	=100
1d]	0r	1f	1a]
1r	.	1r	1r
=101	=101	=101	=101
0G	0d	0g	0b-y
=102	=102	=102	=102
1G	1d	1g	1b-y
1C	1e	1g	1cc
=103	=103	=103	=103
1.F	1.c	1.f	1.a
2F	2c	2f	2a
=104	=104	=104	=104
1G	1B-y	1.d	1b-y
[1E-X	4B-y	.	1g
.	4A	.	.
.	4G	4c	.
.	4F	4B-y	.
=105	=105	=105	=105
1E-]	1G	1c	1g
[1D	[1A	1d	[1f
=106	=106	=106	=106
1D]	1A]	1.d	0f]
1r	[1d	.	.
.	.	2e	.
=107	=107	=107	=107
1.D	2d]	1.f	1r
.	2e	.	.
.	2.f	.	[1a
2E	.	2g	.
.	8eL	.	.
.	8dJ	.	.
=108	=108	=108	=108
2.F	2c	1a	2a]
.	2d	.	2b-y
4E	.	.	.
4C	1e	1g	1cc
4D	.	.	.
4E	.	.	.
4F	.	.	.
=109	=109	=109	=109
2.G	1.d	2.g	2.b-y
4A	.	4f	4a
2B-y	.	4d	4f
.	.	4e	4g
2F	2c	2f	[2a
=110	=110	=110	=110
2G	2B-y	2d	2a]
2E	2G	2c	1g
1D	1A	1d	.
.	.	.	2f#i
=111	=111	=111	=111
00Gl	00Gl	00dl	00gl
==	==	==	==
*-	*-	*-	*-
!!!system-decoration: [*]
!!!RDF**kern: i = editorial accidental
!!!RDF**kern: l = terminal long
!!!ENC: Benjamin Ory
!!!END: 2021/5/18
!!!EED: Benjamin Ory
!!!EEV: 2021/05/18
!!!YEC: Copyright 2021 Benjamin Ory, All Rights Reserved
!!!ONB: Translated from MusicXML on 2021/05/18
